X: 9146
T: Daisy Bell
R: reel
M: 4/4
K: Dmajor
A/B/c d2 dc de|fg a2 a^g af|df gB B/B/B Bc|cB Aa ^ga ba|^ga fd d/d/d Ad|
fd gB B/B/B B2|cB AB cd ed|cB AB cA d2|A/B/c d2 dc de|
fg a2 a^g af|df gB B/B/B Bc|cB Aa ^ga ba|^ga fd d/d/d Ad|
fd gB B/B/B B2|cB AB cd ed|cB AB cA d2|A/B/c dc de fe|
dc Bg g/g/g ag|fg ef de cd|Bc Aa a/a/a ba|^ga fd d/d/d Ad|
fd gB B/B/B B2|cB AB cd ed|cB AB cA d2|A/B/c dc de fe|
dc Bg g/g/g ag|fg ef de cd|Bc Aa a/a/a ba|^ga fd d/d/d Ad|
fd gB B/B/B B2|cB AB cd ed|cB AB cA d2|

